images/search.svg

<svg fill="none" height="28" viewBox="0 0 27 28" width="27" xmlns="http://www.w3.org/2000/svg"><path d="m19.0596 17.6259c1.6117-1.7601 2.5686-4.0211 2.7102-6.4034.1415-2.38232-.541-4.74077-1.9329-6.67932s-3.4084-3.33914-5.7109-3.966561c-2.3026-.6274199-4.7509-.443459-6.93383.520991-2.18294.96444-3.96754 2.65064-5.05413 4.77541-1.08659 2.12478-1.408986 4.55878-.91304 6.89308.49594 2.3344 1.78001 4.4271 3.63658 5.9266 1.85656 1.4995 4.17255 2.3145 6.55902 2.3082 2.2524.0031 4.4439-.7309 6.24-2.09l7.748 7.807c.0855.0891.1879.1602.3013.2091.1133.0489.2353.0747.3587.0759.1237.0004.2462-.0247.3597-.0737.1136-.0491.2158-.121.3003-.2113.1739-.1809.2711-.4221.2711-.673s-.0972-.4921-.2711-.673zm-16.17298-7.125c.01284-1.68527.52432-3.32903 1.46997-4.72405s2.28313-2.47884 3.84385-3.11485c1.56071-.63601 3.27476-.79573 4.92616-.45902 1.6513.33671 3.166 1.15477 4.3531 2.35106s1.9935 2.71725 2.3175 4.37115c.324 1.65391.1511 3.36671-.497 4.92241-.648 1.5558-1.7421 2.8849-3.1443 3.8198-1.4023.9349-3.05 1.4337-4.7353 1.4335-2.27144-.0108-4.44578-.9225-6.04576-2.5349-1.59998-1.6123-2.49486-3.7936-2.48822-6.0651z" fill="#e8e8e8"/></svg>

<svg width="27" height="28" viewBox="0 0 27 28" fill="none" xmlns="http://www.w3.org/2000/svg">
<path d="M19.0596 17.6259C20.6713 15.8658 21.6282 13.6048 21.7698 11.2225C21.9113 8.84018 21.2288 6.48173 19.8369 4.54318C18.445 2.60463 16.4285 1.20404 14.126 0.576619C11.8234 -0.0508009 9.3751 0.13316 7.19217 1.09761C5.00923 2.06205 3.22463 3.74825 2.13804 5.87302C1.05145 7.9978 0.729054 10.4318 1.225 12.7661C1.72094 15.1005 3.00501 17.1932 4.86158 18.6927C6.71814 20.1922 9.03413 21.0072 11.4206 21.0009C13.673 21.004 15.8645 20.27 17.6606 18.9109L25.4086 26.7179C25.4941 26.807 25.5965 26.8781 25.7099 26.927C25.8232 26.9759 25.9452 27.0017 26.0686 27.0029C26.1923 27.0033 26.3148 26.9782 26.4283 26.9292C26.5419 26.8801 26.6441 26.8082 26.7286 26.7179C26.9025 26.537 26.9997 26.2958 26.9997 26.0449C26.9997 25.794 26.9025 25.5528 26.7286 25.3719L19.0596 17.6259ZM2.88662 10.5009C2.89946 8.81563 3.41094 7.17187 4.35659 5.77685C5.30224 4.38183 6.63972 3.29801 8.20044 2.662C9.76115 2.02599 11.4752 1.86627 13.1266 2.20298C14.7779 2.53969 16.2926 3.35775 17.4797 4.55404C18.6668 5.75033 19.4732 7.27129 19.7972 8.92519C20.1212 10.5791 19.9483 12.2919 19.3002 13.8476C18.6522 15.4034 17.5581 16.7325 16.1559 17.6674C14.7536 18.6023 13.1059 19.1011 11.4206 19.1009C9.14916 19.0901 6.97482 18.1784 5.37484 16.566C3.77486 14.9537 2.87998 12.7724 2.88662 10.5009Z" fill="#E8E8E8"/>
</svg>
